remix/Finance/safe-2-fill.svg

<svg viewBox="0 0 24 24" fill="currentColor" xmlns="http://www.w3.org/2000/svg"><path d="M10.0049 19.9998H6.00488V21.9998H4.00488V19.9998H3.00488C2.4526 19.9998 2.00488 19.552 2.00488 18.9998V3.99977C2.00488 3.44748 2.4526 2.99977 3.00488 2.99977H10.0049V1.59C10.0049 1.31385 10.2287 1.09 10.5049 1.09C10.5324 1.09 10.5599 1.09227 10.5871 1.0968L21.1693 2.8605C21.6515 2.94086 22.0049 3.35805 22.0049 3.84689V5.99977H23.0049V7.99977H22.0049V14.9998H23.0049V16.9998H22.0049V19.1526C22.0049 19.6415 21.6515 20.0587 21.1693 20.139L20.0049 20.3331V21.9998H18.0049V20.6664L10.5871 21.9027C10.3147 21.9481 10.0571 21.7641 10.0117 21.4917C10.0072 21.4646 10.0049 21.4371 10.0049 21.4095V19.9998ZM12.0049 19.6388L20.0049 18.3055V4.69402L12.0049 3.36069V19.6388ZM16.5049 13.9998C15.6765 13.9998 15.0049 12.8805 15.0049 11.4998C15.0049 10.1191 15.6765 8.99977 16.5049 8.99977C17.3333 8.99977 18.0049 10.1191 18.0049 11.4998C18.0049 12.8805 17.3333 13.9998 16.5049 13.9998Z"/></svg>

<svg viewBox="0 0 24 24" xmlns="http://www.w3.org/2000/svg"><path fill="none" d="M0 0h24v24H0Z"/><path d="M10 20H6v2H4v-2H3v0c-.56 0-1-.45-1-1V4v0c0-.56.44-1 1-1h7V1.59v0c0-.28.22-.5.5-.5 .02 0 .05 0 .08 0l10.582 1.764v-.001c.48.08.83.49.83.98v2.15h1v2h-1v7h1v2h-1v2.15 0c-.01.48-.36.9-.84.98l-1.17.19v1.66h-2v-1.34l-7.42 1.23v0c-.28.04-.53-.14-.58-.42 -.01-.03-.01-.06-.01-.09v-1.41Zm2-.36l8-1.34V4.68l-8-1.34v16.27ZM16.5 14c-.83 0-1.5-1.12-1.5-2.5s.67-2.5 1.5-2.5c.82 0 1.5 1.12 1.5 2.5s-.68 2.5-1.5 2.5Z"/></svg>
